X: 32254
T: Pibroch Of Donald Dhu
R: jig
M: 6/8
K: Amajor
|:e>cc f>=ga|e>cc c>BA|e>cc f>=ga|e>cA B2 A|
e>cc f>=ga|e>cc c>BA|B2 c d>ef|e>cA B2 A:|
e>cc f>dd e>cc c>BA|e>cc f>dd|e>cA B2 A|
[1e>cc f>dd e>cc c>BA|B2 c d>ef|e>cA B2 A:|
[2e>cc f>dd e>ca c>BA|B2 c d>ef|e>cA B2 A||
|:~e2 A ~f2 A|~e2 A c>BA|~e2 A ~f2 A|e>cA B2 A|
~e2 A ~f2 A|~e2 A c>BA|B2 c d>ef|e>cA B2 A:|
|:a>ee a>ff|a>ee c>BA|a>ee a>ff|e>cA B2 A|
[1a>ee a>ff|a>ee c>BA|B2 c d>ef|e>cA B2 A:|
[2a>ee a>ff|a>ea c>BA|B2 c d>ef|e>cA B2 A||

